!!!SOCIAL_FUNCTION:	war songs
!!!PDT:	1932
!!!OTL: No_123_The_Queen_of_England.krn
!!!REG: Wisconsin
!!!LANG: Non-Tone
!!!LING_GROUP: Algonquin
**kern
*staff1
=1-
*clefF4
*k[f#]
*M3/4
8d\L
8B\J
8B\L
8B\J
4B\
=2||
*M2/4
4B\
8A\L
8A\J
=3
8G\L
8G\J
4D\
=4
4G\
8G\L
8G\J
=5
8G\L
8G\J
8G\
8r
=6
4B\
8B\L
8A\J
=7
8B\L
8G\J
16G\
16r
8A\
=8
8G\L
8D\J
8D\L
8D\J
=9
4D\
8D\
8r
=10
4G\
8G\L
8E\J
=11
8D\L
8D\J
4D\
=12
4D\
4r
==
*-
